komodo/Komodo-Biru/apps/scalable/xterm.svg

<?xml version="1.0" encoding="UTF-8" standalone="no"?>
<!-- Created with Inkscape (http://www.inkscape.org/) -->

<svg
   xmlns:dc="http://purl.org/dc/elements/1.1/"
   xmlns:cc="http://creativecommons.org/ns#"
   xmlns:rdf="http://www.w3.org/1999/02/22-rdf-syntax-ns#"
   xmlns:svg="http://www.w3.org/2000/svg"
   xmlns="http://www.w3.org/2000/svg"
   xmlns:xlink="http://www.w3.org/1999/xlink"
   xmlns:sodipodi="http://sodipodi.sourceforge.net/DTD/sodipodi-0.dtd"
   xmlns:inkscape="http://www.inkscape.org/namespaces/inkscape"
   width="96"
   height="96"
   id="svg2982"
   version="1.1"
   inkscape:version="0.48.1 r9760"
   sodipodi:docname="xterm.svg">
  <defs
     id="defs2984">
    <filter
       color-interpolation-filters="sRGB"
       inkscape:collect="always"
       id="filter6279">
      <feGaussianBlur
         inkscape:collect="always"
         stdDeviation="0.8"
         id="feGaussianBlur6281" />
    </filter>
    <linearGradient
       inkscape:collect="always"
       xlink:href="#linearGradient3224-7"
       id="linearGradient10902-1"
       gradientUnits="userSpaceOnUse"
       gradientTransform="translate(0,-9.6171873e-6)"
       x1="48"
       y1="1052.3622"
       x2="48"
       y2="902.36218" />
    <linearGradient
       id="linearGradient3224-7">
      <stop
         id="stop3226-7"
         style="stop-color:#42394b;stop-opacity:1"
         offset="0" />
      <stop
         id="stop3228-6"
         style="stop-color:#000000;stop-opacity:1"
         offset="1" />
    </linearGradient>
  </defs>
  <sodipodi:namedview
     id="base"
     pagecolor="#ffffff"
     bordercolor="#666666"
     borderopacity="1.0"
     inkscape:pageopacity="0.0"
     inkscape:pageshadow="2"
     inkscape:zoom="3.959798"
     inkscape:cx="36.39115"
     inkscape:cy="42.877139"
     inkscape:document-units="px"
     inkscape:current-layer="layer1"
     showgrid="false"
     inkscape:window-width="1280"
     inkscape:window-height="725"
     inkscape:window-x="0"
     inkscape:window-y="25"
     inkscape:window-maximized="1" />
  <metadata
     id="metadata2987">
    <rdf:RDF>
      <cc:Work
         rdf:about="">
        <dc:format>image/svg+xml</dc:format>
        <dc:type
           rdf:resource="http://purl.org/dc/dcmitype/StillImage" />
        <dc:title></dc:title>
      </cc:Work>
    </rdf:RDF>
  </metadata>
  <g
     inkscape:label="Layer 1"
     inkscape:groupmode="layer"
     id="layer1"
     transform="translate(0,-956.36218)">
    <g
       id="g6744">
      <g
         transform="translate(-182.1875,-40.40625)"
         id="g26594" />
      <rect
         y="964.36218"
         x="8"
         height="80"
         width="80"
         id="rect9283"
         style="fill:#000000;fill-opacity:1;stroke:none;filter:url(#filter6279)"
         rx="5"
         ry="5" />
      <rect
         ry="5"
         rx="5"
         style="fill:url(#linearGradient10902-1);fill-opacity:1;stroke:none"
         id="rect9285"
         width="80"
         height="80"
         x="8"
         y="964.36218" />
      <g
         transform="translate(-182.1875,-40.40625)"
         id="g26594-5">
        <g
           id="g6737">
          <path
             style="font-size:48px;font-style:normal;font-variant:normal;font-weight:bold;font-stretch:normal;text-align:start;line-height:125%;writing-mode:lr-tb;text-anchor:start;fill:#ffffff;fill-opacity:1;stroke:none;display:inline;font-family:MgOpen Canonica;-inkscape-font-specification:MgOpen Canonica Bold"
             id="path3213"
             inkscape:connector-curvature="0"
             d="m 206.1875,1020.7684 0,4.0022 8.01165,3.0931 -8.01165,3.0325 0,3.8722 11.94673,-4.9164 0.0533,-3.8421 -12,-5.2415 z" />
          <path
             style="font-size:48px;font-style:normal;font-variant:normal;font-weight:bold;font-stretch:normal;text-align:start;line-height:125%;writing-mode:lr-tb;text-anchor:start;fill:#ffffff;fill-opacity:1;stroke:none;display:inline;font-family:MgOpen Canonica;-inkscape-font-specification:MgOpen Canonica Bold"
             id="path3557"
             inkscape:connector-curvature="0"
             d="m 218.1875,1034.7684 0,4 12,0 0,-4 -12,0 z" />
          <g
             transform="matrix(0.86481127,0,0,0.86481127,188.23064,1003.3808)"
             id="g3104">
            <path
               d="m 24,17.5 a 1.4854276,1.4854276 0 0 0 -1.25,2.3125 L 41.21875,48.5 22.75,76.1875 A 1.4854276,1.4854276 0 0 0 24,78.5 l 4,0 a 1.4854276,1.4854276 0 0 0 1.21875,-0.6875 l 15.6875,-23.40625 14.875,23.40625 a 1.4854276,1.4854276 0 0 0 1.25,0.6875 l 12,0 a 1.4854276,1.4854276 0 0 0 1.25,-2.3125 L 55.8125,47.5 74.28125,19.8125 a 1.4854276,1.4854276 0 0 0 -1.25,-2.3125 l -4,0 A 1.4854276,1.4854276 0 0 0 67.8125,18.1875 L 52.125,41.59375 37.25,18.1875 A 1.4854276,1.4854276 0 0 0 36,17.5 l -12,0 z"
               id="path3927"
               style="opacity:0.2;fill:#ff00ff;stroke:none"
               inkscape:connector-curvature="0" />
            <path
               d="M 24,19 43,48.508772 24,77 28,77 51.03125,42.626096 36,19 24,19 z M 69.03125,19 46,53.373904 61.03125,77 l 12,0 -19,-29.508772 19,-28.491228 -4,0 z"
               inkscape:connector-curvature="0"
               id="path3889"
               style="opacity:0.2;fill:#ffffff;stroke:none" />
          </g>
        </g>
      </g>
    </g>
  </g>
</svg>

<?xml version="1.0" encoding="UTF-8" standalone="no"?>
<!-- Created with Inkscape (http://www.inkscape.org/) -->
<svg id="svg2982" xmlns:rdf="http://www.w3.org/1999/02/22-rdf-syntax-ns#" xmlns="http://www.w3.org/2000/svg" height="96" width="96" version="1.1" xmlns:cc="http://creativecommons.org/ns#" xmlns:xlink="http://www.w3.org/1999/xlink" xmlns:dc="http://purl.org/dc/elements/1.1/">
 <defs id="defs2984">
  <filter id="filter6279" color-interpolation-filters="sRGB">
   <feGaussianBlur id="feGaussianBlur6281" stdDeviation="0.8"/>
  </filter>
  <linearGradient id="linearGradient10902-1" y2="902.36" gradientUnits="userSpaceOnUse" x2="48" gradientTransform="translate(0 -.0000096172)" y1="1052.4" x1="48">
   <stop id="stop3226-7" style="stop-color:#42394b" offset="0"/>
   <stop id="stop3228-6" offset="1"/>
  </linearGradient>
 </defs>
 <metadata id="metadata2987">
  <rdf:RDF>
   <cc:Work rdf:about="">
    <dc:format>image/svg+xml</dc:format>
    <dc:type rdf:resource="http://purl.org/dc/dcmitype/StillImage"/>
    <dc:title/>
   </cc:Work>
  </rdf:RDF>
 </metadata>
 <g id="layer1" transform="translate(0 -956.36)">
  <g id="g6744">
   <rect id="rect9283" style="filter:url(#filter6279)" rx="5" ry="5" height="80" width="80" y="964.36" x="8"/>
   <rect id="rect9285" style="fill:url(#linearGradient10902-1)" rx="5" ry="5" height="80" width="80" y="964.36" x="8"/>
   <g id="g26594-5" transform="translate(-182.19 -40.406)">
    <g id="g6737">
     <path id="path3213" d="m206.19 1020.8v4.0022l8.0116 3.0931-8.0116 3.0325v3.8722l11.947-4.9164 0.0533-3.8421-12-5.2415z" style="fill:#fff"/>
     <path id="path3557" d="m218.19 1034.8v4h12v-4h-12z" style="fill:#fff"/>
     <g id="g3104" transform="matrix(.86481 0 0 .86481 188.23 1003.4)">
      <path id="path3927" style="opacity:.2;fill:#f0f" d="m24 17.5a1.4854 1.4854 0 0 0 -1.25 2.3125l18.469 28.688-18.469 27.688a1.4854 1.4854 0 0 0 1.25 2.312h4a1.4854 1.4854 0 0 0 1.2188 -0.6875l15.688-23.406 14.875 23.406a1.4854 1.4854 0 0 0 1.25 0.6875h12a1.4854 1.4854 0 0 0 1.25 -2.3125l-18.47-28.688 18.469-27.688a1.4854 1.4854 0 0 0 -1.25 -2.3125h-4a1.4854 1.4854 0 0 0 -1.219 0.688l-15.687 23.406-14.875-23.406a1.4854 1.4854 0 0 0 -1.25 -0.688h-12z"/>
      <path id="path3889" style="opacity:.2;fill:#fff" d="m24 19 19 29.509-19 28.491h4l23.031-34.374-15.031-23.626h-12zm45.031 0-23.031 34.374 15.031 23.626h12l-19-29.509 19-28.491h-4z"/>
     </g>
    </g>
   </g>
  </g>
 </g>
</svg>
